public/logos/3S.svg

<?xml version="1.0" encoding="UTF-8"?>
<svg xmlns="http://www.w3.org/2000/svg" xmlns:xlink="http://www.w3.org/1999/xlink" width="176pt" height="41.38pt" viewBox="0 0 176 41.38" version="1.1">
<defs>
<clipPath id="clip1">
  <path d="M 133 10 L 176 10 L 176 41.378906 L 133 41.378906 Z M 133 10 "/>
</clipPath>
</defs>
<g id="surface1">
<path style=" stroke:none;fill-rule:nonzero;fill:rgb(25.193787%,72.775269%,27.113342%);fill-opacity:1;" d="M 11.886719 29.496094 C 11.902344 28.125 11.546875 26.859375 10.683594 25.769531 C 9.414062 24.164062 7.21875 24.113281 5.867188 25.636719 C 4.0625 27.675781 4.101562 31.265625 5.980469 33.226562 C 7.285156 34.589844 8.921875 34.683594 10.34375 33.339844 C 11.441406 32.300781 11.871094 30.976562 11.886719 29.496094 Z M 0 29.34375 C 0.0742188 28.960938 0.164062 28.582031 0.21875 28.199219 C 0.574219 25.710938 1.570312 23.570312 3.617188 22.019531 C 5.789062 20.371094 8.976562 20.4375 10.980469 21.878906 C 11.144531 21.996094 11.316406 22.09375 11.484375 22.203125 C 11.980469 22.09375 12.378906 21.890625 12.730469 21.511719 C 13.59375 20.585938 15.039062 20.632812 16.027344 21.613281 C 16.027344 26.75 16.027344 31.925781 16.027344 37.097656 C 15.453125 37.882812 14.691406 37.984375 13.820312 37.871094 C 12.816406 37.738281 12.523438 36.976562 12.269531 36.074219 C 12 36.261719 11.816406 36.375 11.648438 36.507812 C 10.359375 37.535156 8.945312 38.105469 7.25 38.082031 C 5.707031 38.058594 4.398438 37.523438 3.269531 36.570312 C 1.367188 34.96875 0.433594 32.851562 0.195312 30.402344 C 0.164062 30.101562 0.0664062 29.808594 0 29.511719 C 0 29.457031 0 29.398438 0 29.34375 "/>
<path style=" stroke:none;fill-rule:nonzero;fill:rgb(14.167786%,41.143799%,19.20929%);fill-opacity:1;" d="M 40.472656 29.570312 C 40.472656 30.773438 40.890625 32.011719 41.699219 32.957031 C 42.976562 34.453125 44.90625 34.496094 46.253906 33.066406 C 48.011719 31.195312 48.050781 27.566406 46.328125 25.671875 C 44.917969 24.117188 42.921875 24.179688 41.609375 25.816406 C 40.792969 26.839844 40.453125 28.019531 40.472656 29.570312 Z M 47.433594 22.121094 C 47.773438 21.875 48.140625 21.664062 48.429688 21.375 C 49.433594 20.378906 51.046875 20.464844 52.007812 21.683594 C 52.007812 22.015625 52.007812 22.441406 52.007812 22.867188 C 52.015625 25.972656 52.015625 29.078125 52.027344 32.183594 C 52.03125 33.464844 52.070312 34.746094 52.078125 36.027344 C 52.082031 37.179688 51.652344 37.722656 50.636719 37.898438 C 49.386719 38.113281 48.5625 37.679688 48.195312 36.613281 C 48.148438 36.480469 48.089844 36.351562 48.007812 36.15625 C 47.84375 36.257812 47.699219 36.324219 47.585938 36.425781 C 44.667969 38.996094 40.664062 38.628906 38.082031 35.683594 C 35.121094 32.304688 35.128906 26.449219 38.089844 23.066406 C 40.613281 20.1875 44.304688 19.90625 46.992188 21.847656 C 47.085938 21.914062 47.1875 21.96875 47.433594 22.121094 "/>
<path style=" stroke:none;fill-rule:nonzero;fill:rgb(14.167786%,41.143799%,19.20929%);fill-opacity:1;" d="M 113.789062 27.808594 C 113.703125 25.824219 112.222656 24.386719 110.324219 24.402344 C 108.453125 24.414062 106.988281 25.855469 106.945312 27.808594 C 109.207031 27.808594 111.46875 27.808594 113.789062 27.808594 Z M 107.0625 30.761719 C 107.023438 32.320312 108.476562 34.035156 110.359375 34.160156 C 111.46875 34.234375 112.519531 34.035156 113.523438 33.597656 C 114.148438 33.324219 114.746094 32.984375 115.355469 32.679688 C 116.398438 32.160156 118.074219 33.085938 118.117188 34.25 C 118.132812 34.582031 117.972656 34.976562 117.769531 35.257812 C 116.964844 36.382812 115.835938 37.082031 114.539062 37.523438 C 113.367188 37.921875 112.160156 38.0625 110.929688 38.121094 C 109.976562 38.167969 109.054688 38.089844 108.148438 37.804688 C 105.878906 37.089844 104.265625 35.605469 103.183594 33.511719 C 101.34375 29.953125 102.011719 25.371094 104.769531 22.574219 C 108.304688 18.984375 113.882812 19.449219 116.800781 23.566406 C 117.902344 25.121094 118.464844 26.855469 118.570312 28.746094 C 118.628906 29.746094 118.011719 30.507812 117.015625 30.671875 C 116.683594 30.726562 116.335938 30.722656 115.992188 30.722656 C 113.316406 30.726562 110.640625 30.722656 107.960938 30.726562 C 107.660156 30.726562 107.355469 30.75 107.0625 30.761719 "/>
<path style=" stroke:none;fill-rule:nonzero;fill:rgb(14.167786%,41.143799%,19.20929%);fill-opacity:1;" d="M 69.917969 36.652344 C 69.058594 37.949219 67.761719 38.378906 66.464844 37.835938 C 65.722656 37.519531 65.300781 37 65.308594 36.128906 C 65.332031 33.226562 65.316406 30.320312 65.316406 27.414062 C 65.316406 25.996094 64.714844 25.007812 63.585938 24.550781 C 62.351562 24.050781 60.742188 24.382812 59.871094 25.324219 C 59.359375 25.878906 59.199219 26.546875 59.203125 27.292969 C 59.214844 29.824219 59.207031 32.359375 59.207031 34.894531 C 59.207031 35.265625 59.207031 35.636719 59.207031 36.003906 C 59.203125 37.046875 58.78125 37.644531 57.792969 37.960938 C 57.179688 38.15625 56.550781 38.15625 55.941406 37.960938 C 55.039062 37.671875 54.601562 37.070312 54.601562 36.117188 C 54.597656 31.53125 54.597656 26.945312 54.601562 22.363281 C 54.601562 21.570312 54.894531 21.171875 55.636719 20.878906 C 56.957031 20.355469 58.285156 20.664062 59.253906 21.691406 C 60.234375 21.363281 61.179688 20.957031 62.167969 20.734375 C 63.484375 20.441406 64.824219 20.457031 66.125 20.929688 C 68.339844 21.738281 69.910156 23.953125 69.914062 26.3125 C 69.921875 29.757812 69.917969 33.203125 69.917969 36.652344 "/>
<path style=" stroke:none;fill-rule:nonzero;fill:rgb(14.167786%,41.143799%,19.20929%);fill-opacity:1;" d="M 130.492188 24.792969 C 130.140625 24.660156 129.824219 24.558594 129.519531 24.425781 C 128.363281 23.90625 127.175781 23.511719 125.890625 23.691406 C 125.457031 23.753906 124.992188 23.910156 124.640625 24.160156 C 123.882812 24.707031 123.84375 25.789062 124.574219 26.371094 C 125.054688 26.753906 125.636719 27.023438 126.203125 27.28125 C 127.160156 27.714844 128.152344 28.070312 129.105469 28.515625 C 129.914062 28.898438 130.574219 29.480469 131.042969 30.265625 C 132.3125 32.394531 131.617188 35.386719 129.527344 36.769531 C 128.679688 37.332031 127.738281 37.632812 126.742188 37.785156 C 124.9375 38.0625 123.164062 37.929688 121.449219 37.28125 C 120.230469 36.824219 120 36.496094 119.996094 35.1875 C 119.996094 34.613281 119.847656 33.988281 120.390625 33.414062 C 120.703125 33.550781 121.039062 33.679688 121.355469 33.839844 C 122.589844 34.460938 123.851562 34.984375 125.269531 34.828125 C 125.714844 34.777344 126.179688 34.679688 126.574219 34.484375 C 127.644531 33.960938 127.839844 32.628906 126.925781 31.875 C 126.429688 31.472656 125.804688 31.21875 125.214844 30.941406 C 124.265625 30.492188 123.261719 30.144531 122.34375 29.640625 C 119.492188 28.082031 119.519531 24.488281 121.066406 22.632812 C 121.710938 21.863281 122.535156 21.367188 123.46875 21.070312 C 125.488281 20.421875 127.511719 20.492188 129.503906 21.191406 C 130.625 21.585938 130.773438 21.824219 130.785156 23.007812 C 130.789062 23.5625 130.910156 24.144531 130.492188 24.792969 "/>
<path style=" stroke:none;fill-rule:nonzero;fill:rgb(14.167786%,41.143799%,19.20929%);fill-opacity:1;" d="M 78.316406 20.652344 C 78.558594 20.699219 78.835938 20.75 79.109375 20.804688 C 79.804688 20.949219 80.386719 21.289062 80.785156 21.886719 C 81.390625 22.800781 81.191406 23.835938 80.242188 24.390625 C 79.835938 24.625 79.34375 24.71875 78.886719 24.859375 C 78.699219 24.914062 78.5 24.917969 78.234375 24.957031 C 78.21875 25.308594 78.1875 25.644531 78.183594 25.976562 C 78.175781 29.25 78.175781 32.527344 78.167969 35.800781 C 78.164062 36.855469 77.753906 37.425781 76.746094 37.75 C 76.132812 37.945312 75.515625 37.949219 74.902344 37.742188 C 73.992188 37.433594 73.5625 36.859375 73.5625 35.898438 C 73.5625 32.597656 73.570312 29.292969 73.574219 25.992188 C 73.574219 25.683594 73.574219 25.375 73.574219 25.027344 C 72.699219 24.871094 71.8125 24.820312 71.332031 24.039062 C 71.121094 23.695312 70.984375 23.242188 70.992188 22.84375 C 71.011719 21.640625 71.828125 20.925781 73.550781 20.542969 C 73.574219 20.304688 73.621094 20.035156 73.625 19.765625 C 73.636719 18.882812 73.648438 18 73.625 17.117188 C 73.605469 16.519531 73.886719 16.140625 74.390625 15.902344 C 75.371094 15.441406 76.371094 15.429688 77.363281 15.875 C 77.960938 16.144531 78.273438 16.582031 78.25 17.285156 C 78.214844 18.363281 78.246094 19.445312 78.253906 20.527344 C 78.253906 20.550781 78.277344 20.578125 78.316406 20.652344 "/>
<path style=" stroke:none;fill-rule:nonzero;fill:rgb(14.167786%,41.143799%,19.20929%);fill-opacity:1;" d="M 95.894531 14.265625 C 96.914062 13.042969 98.863281 12.820312 99.988281 13.707031 C 100.296875 13.949219 100.496094 14.242188 100.484375 14.652344 C 100.480469 14.878906 100.484375 15.109375 100.484375 15.335938 C 100.480469 22.144531 100.472656 28.953125 100.464844 35.757812 C 100.460938 37.019531 99.988281 37.621094 98.773438 37.945312 C 98.105469 38.125 97.46875 38.042969 96.863281 37.746094 C 96.226562 37.433594 95.859375 36.960938 95.867188 36.199219 C 95.894531 34.035156 95.882812 31.871094 95.886719 29.707031 C 95.890625 24.863281 95.890625 20.019531 95.894531 15.179688 C 95.894531 14.867188 95.894531 14.554688 95.894531 14.265625 "/>
<path style=" stroke:none;fill-rule:nonzero;fill:rgb(14.167786%,41.143799%,19.20929%);fill-opacity:1;" d="M 88.738281 14.167969 C 89.871094 12.679688 92.230469 12.695312 93.335938 14.183594 C 93.335938 14.746094 93.335938 15.371094 93.335938 15.996094 C 93.332031 22.546875 93.328125 29.097656 93.324219 35.648438 C 93.320312 36.785156 92.929688 37.367188 91.933594 37.722656 C 90.859375 38.101562 89.632812 37.824219 89.023438 37.082031 C 88.726562 36.722656 88.71875 36.308594 88.71875 35.875 C 88.722656 32.03125 88.726562 28.183594 88.730469 24.339844 C 88.734375 21.265625 88.734375 18.1875 88.738281 15.113281 C 88.738281 14.800781 88.738281 14.488281 88.738281 14.167969 "/>
<path style=" stroke:none;fill-rule:nonzero;fill:rgb(25.193787%,72.775269%,27.113342%);fill-opacity:1;" d="M 30.546875 26.710938 C 30.546875 27.035156 30.546875 27.339844 30.546875 27.648438 C 30.546875 30.324219 30.546875 33.003906 30.546875 35.679688 C 30.542969 37.097656 29.828125 37.839844 28.402344 37.847656 C 27.960938 37.851562 27.496094 37.769531 27.082031 37.617188 C 26.464844 37.394531 26.164062 36.914062 26.164062 36.226562 C 26.175781 31.441406 26.171875 26.65625 26.175781 21.871094 C 26.175781 21.730469 26.207031 21.589844 26.21875 21.484375 C 27.007812 20.445312 29.054688 20.484375 29.878906 20.988281 C 30.285156 21.238281 30.40625 21.402344 30.65625 22.203125 C 30.820312 22.066406 30.960938 21.945312 31.097656 21.820312 C 31.910156 21.082031 32.875 20.699219 33.964844 20.664062 C 34.902344 20.636719 35.492188 21.117188 35.652344 22.023438 C 35.804688 22.875 35.648438 23.667969 35.007812 24.308594 C 34.3125 25 33.492188 25.507812 32.589844 25.878906 C 31.9375 26.152344 31.28125 26.414062 30.546875 26.710938 "/>
<path style=" stroke:none;fill-rule:nonzero;fill:rgb(14.167786%,41.143799%,19.20929%);fill-opacity:1;" d="M 86.503906 21.445312 C 86.503906 26.472656 86.503906 31.484375 86.503906 36.464844 C 85.742188 37.6875 84.46875 38.140625 83.179688 37.660156 C 82.402344 37.371094 81.910156 36.65625 81.914062 35.921875 C 81.949219 31.308594 81.941406 26.691406 81.921875 22.078125 C 81.917969 21.375 82.210938 20.953125 82.804688 20.667969 C 84.027344 20.078125 85.667969 20.394531 86.503906 21.445312 "/>
<path style=" stroke:none;fill-rule:nonzero;fill:rgb(25.193787%,72.775269%,27.113342%);fill-opacity:1;" d="M 19.054688 21.679688 C 20.101562 20.390625 22.171875 20.347656 23.410156 21.628906 C 23.410156 21.847656 23.410156 22.15625 23.410156 22.464844 C 23.410156 26.933594 23.410156 31.398438 23.40625 35.867188 C 23.40625 37.261719 22.171875 38.253906 20.78125 37.953125 C 20.074219 37.800781 19.410156 37.539062 19.054688 36.699219 C 19.054688 31.765625 19.054688 26.734375 19.054688 21.679688 "/>
<path style=" stroke:none;fill-rule:nonzero;fill:rgb(14.167786%,41.143799%,19.20929%);fill-opacity:1;" d="M 84.183594 13.628906 C 85.589844 13.640625 86.691406 14.691406 86.683594 16.003906 C 86.671875 17.292969 85.523438 18.347656 84.132812 18.339844 C 82.761719 18.335938 81.625 17.25 81.628906 15.949219 C 81.636719 14.660156 82.785156 13.613281 84.183594 13.628906 "/>
<path style=" stroke:none;fill-rule:nonzero;fill:rgb(25.193787%,72.775269%,27.113342%);fill-opacity:1;" d="M 18.722656 16.226562 C 18.804688 15.179688 19.289062 14.449219 20.242188 14.128906 C 21.949219 13.550781 23.679688 14.578125 23.566406 16.332031 C 23.496094 17.378906 22.6875 18.261719 21.636719 18.371094 C 20.070312 18.53125 18.878906 17.902344 18.722656 16.226562 "/>
<g clip-path="url(#clip1)" clip-rule="nonzero">
<path style=" stroke:none;fill-rule:nonzero;fill:rgb(14.167786%,41.143799%,19.20929%);fill-opacity:1;" d="M 168.082031 11.328125 C 165.8125 12.429688 163.488281 13.414062 161.773438 15.335938 C 161.785156 15.351562 161.796875 15.371094 161.804688 15.386719 C 161.988281 15.292969 162.175781 15.199219 162.359375 15.105469 C 164.304688 14.117188 166.292969 13.238281 168.394531 12.628906 C 170.066406 12.144531 171.765625 11.839844 173.519531 11.972656 C 174.339844 12.035156 175.136719 12.207031 175.894531 12.53125 C 175.933594 12.550781 175.96875 12.574219 176 12.640625 C 175.894531 12.636719 175.785156 12.628906 175.679688 12.625 C 173.550781 12.523438 171.484375 12.789062 169.53125 13.714844 C 167.734375 14.566406 166.332031 15.867188 165.222656 17.5 C 164.679688 18.296875 164.234375 19.144531 163.835938 20.023438 C 163.277344 21.257812 162.585938 22.421875 161.847656 23.558594 C 160.535156 25.570312 159.015625 27.410156 157.308594 29.09375 C 154.964844 31.40625 152.339844 33.359375 149.511719 35.03125 C 146.78125 36.648438 143.917969 37.976562 140.957031 39.101562 C 138.871094 39.890625 136.75 40.574219 134.597656 41.171875 C 134.339844 41.242188 134.074219 41.3125 133.816406 41.378906 C 133.804688 41.382812 133.789062 41.367188 133.75 41.347656 C 133.808594 41.3125 133.851562 41.28125 133.898438 41.261719 C 137.082031 39.960938 139.828125 38.007812 142.296875 35.640625 C 144.714844 33.332031 146.804688 30.742188 148.695312 28 C 150.601562 25.242188 152.433594 22.433594 154.308594 19.65625 C 155.605469 17.730469 156.945312 15.832031 158.546875 14.136719 C 159.605469 13.015625 160.761719 12.011719 162.171875 11.335938 C 164.101562 10.410156 166.039062 10.453125 167.992188 11.257812 C 168.019531 11.269531 168.035156 11.292969 168.082031 11.328125 "/>
</g>
<path style=" stroke:none;fill-rule:nonzero;fill:rgb(96.438599%,52.571106%,8.074951%);fill-opacity:1;" d="M 148.335938 27.144531 C 148.277344 26.890625 148.246094 26.683594 148.1875 26.484375 C 147.90625 25.535156 147.394531 24.707031 146.835938 23.902344 C 145.742188 22.335938 144.5 20.886719 143.175781 19.515625 C 140.613281 16.875 138.027344 14.261719 135.441406 11.648438 C 133.605469 9.796875 132.253906 7.644531 131.28125 5.238281 C 130.625 3.613281 130.148438 1.933594 129.769531 0.226562 C 129.753906 0.167969 129.746094 0.109375 129.738281 0.046875 C 129.738281 0.0390625 129.757812 0.0273438 129.777344 0 C 129.941406 0.25 130.09375 0.496094 130.265625 0.734375 C 131.296875 2.164062 132.632812 3.269531 134.085938 4.25 C 135.820312 5.417969 137.683594 6.363281 139.554688 7.296875 C 141.636719 8.339844 143.746094 9.335938 145.742188 10.542969 C 147.046875 11.332031 148.285156 12.210938 149.347656 13.316406 C 150.519531 14.535156 151.335938 15.941406 151.574219 17.640625 C 151.742188 18.792969 151.625 19.933594 151.332031 21.058594 C 150.890625 22.75 150.128906 24.300781 149.226562 25.789062 C 148.992188 26.167969 148.75 26.542969 148.511719 26.917969 C 148.46875 26.984375 148.414062 27.042969 148.335938 27.144531 "/>
</g>
</svg>

<svg xmlns="http://www.w3.org/2000/svg" width="176pt" height="55.173" viewBox="0 0 176 41.38"><defs><clipPath id="a"><path d="M133 10h43v31.379h-43Zm0 0"/></clipPath></defs><path d="M11.887 29.496c.015-1.371-.34-2.637-1.203-3.726-1.27-1.606-3.465-1.657-4.817-.133-1.804 2.039-1.765 5.629.113 7.59 1.305 1.363 2.942 1.457 4.364.113 1.097-1.04 1.527-2.363 1.543-3.844M0 29.344c.074-.383.164-.762.219-1.145.355-2.488 1.351-4.629 3.398-6.18 2.172-1.648 5.36-1.581 7.363-.14.165.117.336.215.504.324.496-.11.895-.312 1.246-.691.864-.926 2.31-.88 3.297.101v15.485c-.574.785-1.336.886-2.207.773-1.004-.133-1.297-.894-1.55-1.797-.27.188-.454.301-.622.434-1.289 1.027-2.703 1.597-4.398 1.574-1.543-.023-2.852-.559-3.98-1.512C1.367 34.97.434 32.852.195 30.402c-.03-.3-.129-.593-.195-.89z" style="stroke:none;fill-rule:nonzero;fill:#40ba45;fill-opacity:1"/><path d="M40.473 29.57c0 1.203.418 2.442 1.226 3.387 1.278 1.496 3.207 1.54 4.555.11 1.758-1.872 1.797-5.5.074-7.395-1.41-1.555-3.406-1.492-4.719.144-.816 1.024-1.156 2.204-1.136 3.754m6.96-7.449c.34-.246.708-.457.997-.746 1.004-.996 2.617-.91 3.578.309v1.183c.008 3.106.008 6.211.02 9.317.003 1.28.042 2.562.05 3.843.004 1.153-.426 1.696-1.441 1.871-1.25.215-2.075-.218-2.442-1.285-.047-.133-.105-.261-.187-.457-.164.102-.309.168-.422.27-2.918 2.57-6.922 2.203-9.504-.742-2.96-3.38-2.953-9.235.008-12.618 2.523-2.878 6.215-3.16 8.902-1.218.094.066.196.12.442.273M113.79 27.809c-.087-1.985-1.567-3.422-3.466-3.407-1.87.012-3.336 1.453-3.379 3.407zm-6.728 2.953c-.039 1.558 1.415 3.273 3.297 3.398a6.7 6.7 0 0 0 3.164-.562c.625-.274 1.223-.614 1.832-.918 1.043-.52 2.72.406 2.762 1.57.016.332-.144.727-.347 1.008-.805 1.125-1.934 1.824-3.23 2.265-1.173.399-2.38.54-3.61.598-.953.047-1.875-.031-2.782-.316-2.27-.715-3.882-2.2-4.964-4.293-1.84-3.559-1.172-8.14 1.586-10.938 3.535-3.59 9.113-3.125 12.03.992 1.102 1.555 1.665 3.29 1.77 5.18.059 1-.558 1.762-1.554 1.926-.332.055-.68.05-1.024.05-2.676.005-5.351 0-8.031.005-.3 0-.606.023-.898.035M69.918 36.652c-.86 1.297-2.156 1.727-3.453 1.184-.742-.316-1.164-.836-1.156-1.707.023-2.902.007-5.809.007-8.715 0-1.418-.601-2.406-1.73-2.863-1.234-.5-2.844-.168-3.715.773-.512.555-.672 1.223-.668 1.969.012 2.531.004 5.066.004 7.602v1.109c-.004 1.043-.426 1.64-1.414 1.957a3 3 0 0 1-1.852 0c-.902-.29-1.34-.89-1.34-1.844a8072 8072 0 0 1 0-13.754c0-.793.294-1.191 1.036-1.484 1.32-.524 2.648-.215 3.617.812.98-.328 1.926-.734 2.914-.957 1.316-.293 2.656-.277 3.957.196 2.215.808 3.785 3.023 3.79 5.383.007 3.445.003 6.89.003 10.34M130.492 24.793c-.351-.133-.668-.234-.972-.367-1.157-.52-2.344-.914-3.63-.735-.433.063-.898.22-1.25.47-.757.546-.796 1.628-.066 2.21.48.383 1.063.652 1.63.91.956.434 1.948.79 2.901 1.235a4.4 4.4 0 0 1 1.938 1.75c1.27 2.129.574 5.12-1.516 6.504-.847.562-1.789.863-2.785 1.015-1.805.278-3.578.145-5.293-.504-1.219-.457-1.449-.785-1.453-2.093 0-.575-.148-1.2.395-1.774.312.137.648.266.964.426 1.235.62 2.497 1.144 3.915.988.445-.05.91-.148 1.304-.344 1.07-.523 1.266-1.855.352-2.609-.496-.402-1.121-.656-1.711-.934-.95-.449-1.953-.796-2.871-1.3-2.852-1.559-2.824-5.153-1.278-7.008.645-.77 1.47-1.266 2.403-1.563 2.02-.648 4.043-.578 6.035.121 1.121.395 1.27.633 1.281 1.817.004.555.125 1.137-.293 1.785M78.316 20.652c.243.047.52.098.793.153.696.144 1.278.484 1.676 1.082.606.914.406 1.949-.543 2.504-.406.234-.898.328-1.355.468-.188.055-.387.059-.653.098-.015.352-.046.688-.05 1.02-.008 3.273-.008 6.55-.016 9.824-.004 1.054-.414 1.625-1.422 1.949-.613.195-1.23.2-1.844-.008-.91-.308-1.34-.883-1.34-1.844 0-3.3.008-6.605.012-9.906v-.965c-.875-.156-1.761-.207-2.242-.988a2.3 2.3 0 0 1-.34-1.195c.02-1.203.836-1.918 2.559-2.301.023-.238.07-.508.074-.777.012-.883.023-1.766 0-2.649-.02-.597.262-.976.766-1.215.98-.46 1.98-.472 2.972-.027.598.27.91.707.887 1.41-.035 1.078-.004 2.16.004 3.242 0 .024.023.051.062.125M95.895 14.266c1.02-1.223 2.968-1.446 4.093-.559.309.242.508.535.496.945-.004.227 0 .457 0 .684q-.006 10.214-.02 20.422c-.003 1.262-.476 1.863-1.69 2.187-.669.18-1.305.098-1.91-.199-.637-.312-1.005-.785-.997-1.547.028-2.164.016-4.328.02-6.492.004-4.844.004-9.687.008-14.527zM88.738 14.168c1.133-1.488 3.492-1.473 4.598.016v1.812l-.012 19.652c-.004 1.137-.394 1.72-1.39 2.075-1.075.379-2.301.101-2.91-.641-.297-.36-.305-.773-.305-1.207l.011-11.535c.004-3.074.004-6.152.008-9.227z" style="stroke:none;fill-rule:nonzero;fill:#246931;fill-opacity:1"/><path d="M30.547 26.71v8.97c-.004 1.418-.719 2.16-2.145 2.168a3.8 3.8 0 0 1-1.32-.23c-.617-.223-.918-.704-.918-1.391.012-4.786.008-9.57.012-14.356 0-.14.031-.281.043-.387.789-1.039 2.836-1 3.66-.496.406.25.527.414.777 1.215.164-.137.305-.258.442-.383a4.36 4.36 0 0 1 2.867-1.156c.937-.027 1.527.453 1.687 1.36.153.851-.004 1.644-.644 2.285-.696.691-1.516 1.199-2.418 1.57-.653.273-1.309.535-2.043.832" style="stroke:none;fill-rule:nonzero;fill:#40ba45;fill-opacity:1"/><path d="M86.504 21.445v15.02c-.762 1.222-2.035 1.676-3.324 1.195-.778-.289-1.27-1.004-1.266-1.738.035-4.613.027-9.23.008-13.844-.004-.703.289-1.125.883-1.41 1.222-.59 2.863-.273 3.699.777" style="stroke:none;fill-rule:nonzero;fill:#246931;fill-opacity:1"/><path d="M19.055 21.68c1.047-1.29 3.117-1.332 4.355-.051v.836c0 4.469 0 8.933-.004 13.402 0 1.395-1.234 2.387-2.625 2.086-.707-.152-1.37-.414-1.726-1.254z" style="stroke:none;fill-rule:nonzero;fill:#40ba45;fill-opacity:1"/><path d="M84.184 13.629c1.406.012 2.507 1.062 2.5 2.375-.012 1.289-1.16 2.344-2.551 2.336-1.371-.004-2.508-1.09-2.504-2.39.008-1.29 1.156-2.337 2.555-2.321" style="stroke:none;fill-rule:nonzero;fill:#246931;fill-opacity:1"/><path d="M18.723 16.227c.082-1.047.566-1.778 1.52-2.098 1.706-.578 3.437.45 3.323 2.203-.07 1.047-.878 1.93-1.93 2.04-1.566.16-2.757-.47-2.913-2.145" style="stroke:none;fill-rule:nonzero;fill:#40ba45;fill-opacity:1"/><g clip-path="url(#a)"><path d="M168.082 11.328c-2.27 1.102-4.594 2.086-6.309 4.008a.4.4 0 0 1 .032.05l.554-.28c1.946-.989 3.934-1.868 6.036-2.477 1.671-.484 3.37-.79 5.125-.656.82.062 1.617.234 2.375.558.039.02.074.043.105.11-.105-.004-.215-.012-.32-.016-2.13-.102-4.196.164-6.149 1.09-1.797.851-3.199 2.152-4.308 3.785-.543.797-.989 1.645-1.387 2.523-.559 1.235-1.25 2.399-1.988 3.536a33.4 33.4 0 0 1-4.54 5.535c-2.343 2.312-4.968 4.265-7.796 5.937-2.73 1.617-5.594 2.946-8.555 4.07a74 74 0 0 1-6.36 2.07c-.257.071-.523.142-.78.208-.012.004-.028-.012-.067-.031.059-.035.102-.067.148-.086 3.184-1.301 5.93-3.254 8.399-5.621 2.418-2.309 4.508-4.899 6.398-7.641 1.907-2.758 3.739-5.566 5.614-8.344 1.296-1.926 2.636-3.824 4.238-5.52 1.058-1.12 2.215-2.124 3.625-2.8 1.93-.926 3.867-.883 5.82-.078.028.012.043.035.09.07" style="stroke:none;fill-rule:nonzero;fill:#246931;fill-opacity:1"/></g><path d="M148.336 27.145c-.059-.254-.09-.461-.149-.66-.28-.95-.792-1.778-1.351-2.583-1.094-1.566-2.336-3.015-3.66-4.386a1131 1131 0 0 0-7.735-7.868c-1.836-1.851-3.187-4.003-4.16-6.41-.656-1.625-1.133-3.304-1.511-5.011a1.3 1.3 0 0 1-.032-.18c0-.008.02-.02.04-.047.163.25.316.496.488.734 1.03 1.43 2.367 2.536 3.82 3.516 1.734 1.168 3.598 2.113 5.469 3.047 2.082 1.043 4.191 2.039 6.187 3.246 1.305.789 2.543 1.668 3.606 2.773 1.172 1.22 1.988 2.625 2.226 4.325.168 1.152.051 2.293-.242 3.418-.441 1.691-1.203 3.242-2.105 4.73-.235.379-.477.754-.715 1.129-.043.066-.098.125-.176.227" style="stroke:none;fill-rule:nonzero;fill:#f68615;fill-opacity:1"/></svg>
